communes/5756.svg

<?xml version="1.0" encoding="UTF-8"?>
<svg version="1.0" viewBox="0 0 603 763" xmlns="http://www.w3.org/2000/svg" xmlns:cc="http://creativecommons.org/ns#" xmlns:dc="http://purl.org/dc/elements/1.1/" xmlns:rdf="http://www.w3.org/1999/02/22-rdf-syntax-ns#" xmlns:xlink="http://www.w3.org/1999/xlink">
<metadata>
<rdf:RDF>
<cc:Work rdf:about="">
<dc:format>image/svg+xml</dc:format>
<dc:type rdf:resource="http://purl.org/dc/dcmitype/StillImage"/>
<dc:date>07-AUG-2006</dc:date>
<dc:creator>
<cc:Agent>
<dc:title>Jérôme BLUM (wagner51)</dc:title>
</cc:Agent>
</dc:creator>
<cc:license rdf:resource="http://creativecommons.org/licenses/GPL/2.0/"/>
<dc:coverage/>
<dc:description>Gabarit pour le Projet:Blasons de WIkipédia</dc:description>
<dc:subject>
<rdf:Bag>
<rdf:li>blason suisse modèle gabarit projet blasons</rdf:li>
</rdf:Bag>
</dc:subject>
<dc:language>fr</dc:language>
<dc:title>Gabrit d'un blason suisse</dc:title>
</cc:Work>
<cc:License rdf:about="http://creativecommons.org/licenses/GPL/2.0/">
<cc:permits rdf:resource="http://web.resource.org/cc/Reproduction"/>
<cc:permits rdf:resource="http://web.resource.org/cc/Distribution"/>
<cc:requires rdf:resource="http://web.resource.org/cc/Notice"/>
<cc:permits rdf:resource="http://web.resource.org/cc/DerivativeWorks"/>
<cc:requires rdf:resource="http://web.resource.org/cc/ShareAlike"/>
<cc:requires rdf:resource="http://web.resource.org/cc/SourceCode"/>
</cc:License>
</rdf:RDF>
</metadata>
<defs>
<radialGradient id="a" cx="858.04" cy="579.93" r="300" gradientTransform="matrix(1.215 1.5316e-24 1.4647e-23 1.2667 -839.19 -490.49)" gradientUnits="userSpaceOnUse">
<stop stop-color="#fff" stop-opacity=".31373" offset="0"/>
<stop stop-color="#fff" stop-opacity=".25098" offset=".19"/>
<stop stop-color="#6b6b6b" stop-opacity=".12549" offset=".6"/>
<stop stop-opacity=".12549" offset="1"/>
</radialGradient>
</defs>
<desc>Coat of Arms of Canton of Freiburg (Fribourg)</desc>
<g>
<path d="m1.5 1.5v458.87c0 166.31 134.31 301.13 300 301.13 165.69 0 300-134.82 300-301.13v-458.87h-600z" fill="#e20909"/>
<path d="m446.72 722.36c4.864-16.898 5.391-28.879 5.391-33.246 0-30.652-21.893-47.193-42.491-47.193-20.011 0-39.587 14.73-58.519 28.973-4.442 3.344-9.036 6.799-13.568 10.014-20.514 14.553-32.157 8.801-36.03 5.889-3.872 2.912-15.514 8.664-36.027-5.889-4.532-3.215-9.126-6.67-13.569-10.014-18.931-14.242-38.507-28.973-58.517-28.973-20.6 0-42.494 16.541-42.494 47.193 0 4.367 0.525 16.35 5.391 33.244l-1.9 0.549c43.471 24.604 93.656 38.656 147.12 38.656 53.461 0 103.65-14.055 147.12-38.656l-1.902-0.547z" fill="#fcef3c"/>
<path d="m448.62 722.91-1.9-0.547c4.864-16.898 5.391-28.879 5.391-33.246 0-30.652-21.893-47.193-42.491-47.193-20.011 0-39.587 14.73-58.519 28.973-4.442 3.344-9.036 6.799-13.568 10.014-20.514 14.553-32.157 8.801-36.03 5.889-3.872 2.912-15.514 8.664-36.027-5.889-4.532-3.215-9.126-6.67-13.569-10.014-18.931-14.242-38.507-28.973-58.517-28.973-20.6 0-42.494 16.541-42.494 47.193 0 4.367 0.525 16.35 5.391 33.244l-1.9 0.549" fill="none" stroke="#000" stroke-linecap="round" stroke-linejoin="round" stroke-width="3"/>
<path d="m355.98 655.97c0-14.551-5.667-28.23-15.956-38.521-10.29-10.289-23.971-15.957-38.522-15.957-30.039 0-54.477 24.438-54.477 54.479 0 15.984 12.105 43.291 23.434 63.516 13.866 24.756 26.91 40.078 31.042 40.078 4.135 0 17.179-15.322 31.045-40.078 11.327-20.226 23.434-47.533 23.434-63.517z" fill="#fcef3c"/>
<path d="m355.98 655.97c0-14.551-5.667-28.23-15.956-38.521-10.29-10.289-23.971-15.957-38.522-15.957-30.039 0-54.477 24.438-54.477 54.479 0 15.984 12.105 43.291 23.434 63.516 13.866 24.756 26.91 40.078 31.042 40.078 4.135 0 17.179-15.322 31.045-40.078 11.327-20.226 23.434-47.533 23.434-63.517z" fill="none" stroke="#000" stroke-linecap="round" stroke-linejoin="round" stroke-width="3"/>
<path d="m601.5 1.5h-60.884l-239.12 257.3-239.12-257.3h-60.881v116.09l215.62 232.02-197.89 212.94c14.749 41.043 38.131 77.939 67.943 108.49l214.33-230.63 214.33 230.63c29.813-30.557 53.195-67.449 67.943-108.49l-197.89-212.94 215.62-232.02v-116.09z" fill="#fff"/>
<path d="m540.61 1.5-239.12 257.3-239.12-257.3" fill="none" stroke="#000" stroke-linecap="round" stroke-linejoin="round" stroke-width="3"/>
<path d="m583.77 562.55-197.89-212.94 215.62-232.02" fill="none" stroke="#000" stroke-linecap="round" stroke-linejoin="round" stroke-width="3"/>
<path d="m87.169 671.04 214.33-230.63 214.33 230.63" fill="none" stroke="#000" stroke-linecap="round" stroke-linejoin="round" stroke-width="3"/>
<path d="m1.5 117.59 215.62 232.02-197.89 212.94" fill="none" stroke="#000" stroke-linecap="round" stroke-linejoin="round" stroke-width="3"/>
</g>
<g>
<path d="m1.5 1.5v458.87c0 166.31 134.31 301.13 300 301.13 165.69 0 300-134.82 300-301.13v-458.87h-600z" fill="url(#a)"/>
<path d="m1.5 1.5v458.87c0 166.31 134.31 301.13 300 301.13 165.69 0 300-134.82 300-301.13v-458.87h-600z" fill="none" stroke="#000" stroke-width="3"/>
</g>
</svg>

<?xml version="1.0" encoding="UTF-8" standalone="no"?>
<svg
   xmlns:dc="http://purl.org/dc/elements/1.1/"
   xmlns:cc="http://creativecommons.org/ns#"
   xmlns:rdf="http://www.w3.org/1999/02/22-rdf-syntax-ns#"
   xmlns:svg="http://www.w3.org/2000/svg"
   xmlns="http://www.w3.org/2000/svg"
   xmlns:xlink="http://www.w3.org/1999/xlink"
   xmlns:sodipodi="http://sodipodi.sourceforge.net/DTD/sodipodi-0.dtd"
   xmlns:inkscape="http://www.inkscape.org/namespaces/inkscape"
   height="763"
   width="603"
   version="1.0"
   id="svg20"
   sodipodi:version="0.32"
   inkscape:version="0.46"
   sodipodi:docname="Montcherand-coat_of_arms.svg"
   sodipodi:docbase="C:\Documents and Settings\Steve\Bureau\Blason Villages Suisse pour Wikipédia (par Delta-9)"
   inkscape:output_extension="org.inkscape.output.svg.inkscape">
  <metadata
     id="metadata31">
    <rdf:RDF>
      <cc:Work
         rdf:about="">
        <dc:format>image/svg+xml</dc:format>
        <dc:type
           rdf:resource="http://purl.org/dc/dcmitype/StillImage" />
        <dc:date>07-AUG-2006</dc:date>
        <dc:creator>
          <cc:Agent>
            <dc:title>Jérôme BLUM (wagner51)</dc:title>
          </cc:Agent>
        </dc:creator>
        <cc:license
           rdf:resource="http://creativecommons.org/licenses/GPL/2.0/" />
        <dc:coverage />
        <dc:description>Gabarit pour le Projet:Blasons de WIkipédia</dc:description>
        <dc:subject>
          <rdf:Bag>
            <rdf:li>blason suisse modèle gabarit projet blasons</rdf:li>
          </rdf:Bag>
        </dc:subject>
        <dc:language>fr</dc:language>
        <dc:title>Gabrit d'un blason suisse</dc:title>
      </cc:Work>
      <cc:License
         rdf:about="http://creativecommons.org/licenses/GPL/2.0/">
        <cc:permits
           rdf:resource="http://web.resource.org/cc/Reproduction" />
        <cc:permits
           rdf:resource="http://web.resource.org/cc/Distribution" />
        <cc:requires
           rdf:resource="http://web.resource.org/cc/Notice" />
        <cc:permits
           rdf:resource="http://web.resource.org/cc/DerivativeWorks" />
        <cc:requires
           rdf:resource="http://web.resource.org/cc/ShareAlike" />
        <cc:requires
           rdf:resource="http://web.resource.org/cc/SourceCode" />
      </cc:License>
    </rdf:RDF>
  </metadata>
  <defs
     id="defs29"><inkscape:perspective
   sodipodi:type="inkscape:persp3d"
   inkscape:vp_x="0 : 381.5 : 1"
   inkscape:vp_y="0 : 1000 : 0"
   inkscape:vp_z="603 : 381.5 : 1"
   inkscape:persp3d-origin="301.5 : 254.33333 : 1"
   id="perspective28" />
<linearGradient
   id="linearGradient2893">
  <stop
     style="stop-color:#ffffff;stop-opacity:0.3137255;"
     offset="0"
     id="stop2895" />
  <stop
     id="stop2897"
     offset="0.19"
     style="stop-color:#ffffff;stop-opacity:0.25098041;" />
  <stop
     style="stop-color:#6b6b6b;stop-opacity:0.1254902;"
     offset="0.60000002"
     id="stop2901" />
  <stop
     style="stop-color:#000000;stop-opacity:0.1254902;"
     offset="1"
     id="stop2899" />
</linearGradient>
<linearGradient
   id="linearGradient2955">
  <stop
     style="stop-color:white;stop-opacity:0;"
     offset="0"
     id="stop2965" />
  <stop
     style="stop-color:black;stop-opacity:0.64583331;"
     offset="1"
     id="stop2959" />
</linearGradient>
<radialGradient
   inkscape:collect="always"
   xlink:href="#linearGradient2893"
   id="radialGradient3236"
   gradientUnits="userSpaceOnUse"
   gradientTransform="matrix(1.215027,1.531577e-24,1.464684e-23,1.266667,-839.1924,-490.4894)"
   cx="858.04236"
   cy="579.93323"
   fx="858.04236"
   fy="579.93323"
   r="300" />
<inkscape:perspective
   id="perspective2523"
   inkscape:persp3d-origin="297.63751 : 280.63 : 1"
   inkscape:vp_z="595.27502 : 420.94501 : 1"
   inkscape:vp_y="0 : 1000 : 0"
   inkscape:vp_x="0 : 420.94501 : 1"
   sodipodi:type="inkscape:persp3d" />

	
	

	

		
		
		
		
		
	
		
		
		
		
	</defs>
  <sodipodi:namedview
     inkscape:window-height="968"
     inkscape:window-width="1280"
     inkscape:pageshadow="2"
     inkscape:pageopacity="0.0"
     guidetolerance="10.0"
     gridtolerance="10.0"
     objecttolerance="10.0"
     borderopacity="1.0"
     bordercolor="#666666"
     pagecolor="#ffffff"
     id="base"
     inkscape:zoom="0.96979432"
     inkscape:cx="306.08769"
     inkscape:cy="468.35759"
     inkscape:window-x="1280"
     inkscape:window-y="22"
     inkscape:current-layer="layer2"
     showgrid="false"
     showguides="true"
     inkscape:guide-bbox="true">
    <sodipodi:guide
       orientation="horizontal"
       position="761.5"
       id="guide1885" />
    <sodipodi:guide
       orientation="vertical"
       position="1.5"
       id="guide1887" />
    <sodipodi:guide
       orientation="horizontal"
       position="1.5"
       id="guide1889" />
    <sodipodi:guide
       orientation="vertical"
       position="601.5"
       id="guide1891" />
    <sodipodi:guide
       orientation="vertical"
       position="301.50081"
       id="guide1893" />
  </sodipodi:namedview>
  <desc
     id="desc22">Coat of Arms of Canton of Freiburg (Fribourg)</desc>
  <g
     inkscape:groupmode="layer"
     id="layer1"
     inkscape:label="Fond écu"
     style="opacity:1;display:inline"
     sodipodi:insensitive="true">
    <path
       id="path1899"
       d="M 1.5,1.49998 L 1.5,460.3679 C 1.5,626.6785 135.81456,761.5 301.49999,761.5 C 467.18543,761.5 601.5,626.6785 601.5,460.3679 L 601.5,1.49998 L 1.5,1.49998 z"
       style="fill:#e20909;fill-opacity:1" />
  </g>
  <g
     inkscape:groupmode="layer"
     id="layer2"
     inkscape:label="Meubles"
     style="opacity:1;display:inline"
     sodipodi:insensitive="true">
    <g
       id="g2580">
      <path
         d="M 446.717,722.361 C 451.581,705.463 452.108,693.482 452.108,689.115 C 452.108,658.463 430.215,641.922 409.617,641.922 C 389.606,641.922 370.03,656.652 351.098,670.895 C 346.656,674.239 342.062,677.694 337.53,680.909 C 317.016,695.462 305.373,689.71 301.5,686.798 C 297.628,689.71 285.986,695.462 265.473,680.909 C 260.941,677.694 256.347,674.239 251.904,670.895 C 232.973,656.653 213.397,641.922 193.387,641.922 C 172.787,641.922 150.893,658.463 150.893,689.115 C 150.893,693.482 151.418,705.465 156.284,722.359 L 154.384,722.908 C 197.855,747.512 248.04,761.564 301.504,761.564 C 354.965,761.564 405.15,747.509 448.619,722.908 L 446.717,722.361 z"
         id="path2619"
         style="fill:#fcef3c" />
      <path
         d="M 448.617,722.908 L 446.717,722.361 C 451.581,705.463 452.108,693.482 452.108,689.115 C 452.108,658.463 430.215,641.922 409.617,641.922 C 389.606,641.922 370.03,656.652 351.098,670.895 C 346.656,674.239 342.062,677.694 337.53,680.909 C 317.016,695.462 305.373,689.71 301.5,686.798 C 297.628,689.71 285.986,695.462 265.473,680.909 C 260.941,677.694 256.347,674.239 251.904,670.895 C 232.973,656.653 213.397,641.922 193.387,641.922 C 172.787,641.922 150.893,658.463 150.893,689.115 C 150.893,693.482 151.418,705.465 156.284,722.359 L 154.384,722.908"
         id="path2619_1_"
         style="fill:none;stroke:#000000;stroke-width:3;stroke-linecap:round;stroke-linejoin:round" />
      <path
         d="M 355.978,655.972 C 355.978,641.421 350.311,627.742 340.022,617.451 C 329.732,607.162 316.051,601.494 301.5,601.494 C 271.461,601.494 247.023,625.932 247.023,655.973 C 247.023,671.957 259.128,699.264 270.457,719.489 C 284.323,744.245 297.367,759.567 301.499,759.567 C 305.634,759.567 318.678,744.245 332.544,719.489 C 343.871,699.263 355.978,671.956 355.978,655.972 z"
         id="path2753"
         style="fill:#fcef3c" />
      <path
         d="M 355.978,655.972 C 355.978,641.421 350.311,627.742 340.022,617.451 C 329.732,607.162 316.051,601.494 301.5,601.494 C 271.461,601.494 247.023,625.932 247.023,655.973 C 247.023,671.957 259.128,699.264 270.457,719.489 C 284.323,744.245 297.367,759.567 301.499,759.567 C 305.634,759.567 318.678,744.245 332.544,719.489 C 343.871,699.263 355.978,671.956 355.978,655.972 z"
         id="path2753_1_"
         style="fill:none;stroke:#000000;stroke-width:3;stroke-linecap:round;stroke-linejoin:round" />
    </g>
    <path
       style="fill:#ffffff"
       id="path2515"
       d="M 601.497,1.5 L 540.613,1.5 L 301.497,258.805 L 62.381,1.5 L 1.5,1.5 L 1.5,117.589 L 217.117,349.607 L 19.228,562.548 C 33.977,603.591 57.359,640.487 87.171,671.04 L 301.499,440.409 L 515.828,671.04 C 545.641,640.483 569.023,603.591 583.771,562.546 L 385.882,349.607 L 601.497,117.589 L 601.497,1.5 L 601.497,1.5 z" />
    <path
       style="fill:none;stroke:#000000;stroke-width:3;stroke-linecap:round;stroke-linejoin:round"
       id="path2460_5_"
       d="M 540.613,1.5 L 301.497,258.805 L 62.381,1.5" />
    <path
       style="fill:none;stroke:#000000;stroke-width:3;stroke-linecap:round;stroke-linejoin:round"
       id="path2460_7_"
       d="M 583.772,562.546 L 385.882,349.607 L 601.497,117.589" />
    <path
       style="fill:none;stroke:#000000;stroke-width:3;stroke-linecap:round;stroke-linejoin:round"
       id="path2460_9_"
       d="M 87.169,671.04 L 301.498,440.407 L 515.827,671.04" />
    <path
       style="fill:none;stroke:#000000;stroke-width:3;stroke-linecap:round;stroke-linejoin:round"
       id="path2460_8_"
       d="M 1.5,117.589 L 217.117,349.607 L 19.228,562.548" />
  </g>
  <g
     inkscape:groupmode="layer"
     id="layer3"
     inkscape:label="Reflet final"
     style="display:inline"
     sodipodi:insensitive="true">
    <path
       style="fill:url(#radialGradient3236);fill-opacity:1"
       d="M 1.5,1.5 L 1.5,460.3679 C 1.5,626.67854 135.81454,761.5 301.49993,761.5 C 467.1854,761.5 601.5,626.67854 601.5,460.3679 L 601.5,1.5 L 1.5,1.5 z"
       id="path2346" />
  </g>
  <g
     inkscape:groupmode="layer"
     id="layer4"
     inkscape:label="Contour final"
     style="display:inline"
     sodipodi:insensitive="true">
    <path
       style="fill:none;fill-opacity:1;stroke:#000000;stroke-width:3;stroke-miterlimit:4;stroke-dasharray:none;stroke-opacity:1"
       d="M 1.5,1.5 L 1.5,460.36794 C 1.5,626.67854 135.81454,761.5 301.49993,761.5 C 467.1854,761.5 601.5,626.67854 601.5,460.36794 L 601.5,1.5 L 1.5,1.5 z "
       id="path3239" />
  </g>
</svg>
